www/assets/icons/model_training.svg

<svg xmlns="http://www.w3.org/2000/svg" width="24" height="24" viewBox="0 0 24 24" fill='currentColor'><path d="M15.5 14.5c0 2-2.5 3.5-2.5 5h-2c0-1.5-2.5-3-2.5-5 0-1.93 1.57-3.5 3.5-3.5s3.5 1.57 3.5 3.5m-2.5 6h-2V22h2zm6-6.5c0 1.68-.59 3.21-1.58 4.42l1.42 1.42a8.98 8.98 0 0 0-1-12.68l-1.42 1.42A7 7 0 0 1 19 14m-3-8-4-4v3a9 9 0 0 0-9 9c0 2.23.82 4.27 2.16 5.84l1.42-1.42A6.94 6.94 0 0 1 5 14c0-3.86 3.14-7 7-7v3z"/></svg>

<svg width="24" height="24" viewBox="0 0 24 24" xmlns="http://www.w3.org/2000/svg" fill='currentColor'><path d="M15.5 14.5C15.5 16.5 13 18 13 19.5H11C11 18 8.5 16.5 8.5 14.5C8.5 12.57 10.07 11 12 11C13.93 11 15.5 12.57 15.5 14.5ZM13 20.5H11V22H13V20.5ZM19 14C19 15.68 18.41 17.21 17.42 18.42L18.84 19.84C20.18 18.27 21 16.23 21 14C21 11.26 19.77 8.81 17.84 7.16L16.42 8.58C17.99 9.86 19 11.82 19 14ZM16 6L12 2V5C7.03 5 3 9.03 3 14C3 16.23 3.82 18.27 5.16 19.84L6.58 18.42C5.59 17.21 5 15.68 5 14C5 10.14 8.14 7 12 7V10L16 6Z"/></svg>
